Arsenal/img/facilityIcon.svg

<svg width="64" height="65" viewBox="0 0 64 65" fill="none" xmlns="http://www.w3.org/2000/svg">
<path d="M3.15201 25.0051L0 64.4047H18.5025L14.2999 25.0051H3.15201Z" fill="#DE6518"/>
<path d="M3.90381 15.616L3.45312 21.2495H13.8999L13.299 15.616H3.90381Z" fill="#DE6518"/>
<path d="M58.8589 26.8831L48.8015 39.0416V26.8831H43.6633L33.0616 39.6269V26.8831H27.918L19.3828 37.244L20.6813 49.4171H26.4436V53.1728H21.0819L22.2837 64.4398H64.0004V26.8831H58.8589ZM37.7106 53.1728H30.1993V49.4171H37.7106V53.1728ZM48.9777 53.1728H41.4663V49.4171H48.9777V53.1728ZM60.2447 53.1728H52.7334V49.4171H60.2447V53.1728Z" fill="#DE6518"/>
<path d="M16.6736 11.8603L17.9379 23.7131C19.8856 23.5393 21.7411 22.7971 23.2683 21.5896C24.9829 22.5888 26.9493 23.1273 28.9458 23.1273C32.0527 23.1273 34.9948 21.844 37.1057 19.6272C38.4556 20.2826 39.9356 20.6235 41.4647 20.6235C43.6656 20.6235 45.8019 19.8902 47.5346 18.5717C48.9823 19.4993 50.6674 19.9976 52.4188 19.9976C57.4235 19.9976 61.495 15.9261 61.495 10.9214C61.495 5.91668 57.4235 1.84515 52.4188 1.84515C50.8575 1.84515 49.3303 2.24939 47.9836 3.00416C46.1821 1.45644 43.8834 0.593262 41.4647 0.593262C39.2694 0.593262 37.1402 1.32186 35.4105 2.63272C33.5272 1.30809 31.2857 0.593262 28.9458 0.593262C25.706 0.593262 22.6682 1.9741 20.5454 4.35232C19.4324 3.93794 18.2484 3.72299 17.0528 3.72299C12.1724 3.72299 8.0985 7.2328 7.2168 11.8603H16.6736Z" fill="#DE6518"/>
</svg>

<svg width="64" height="65" fill="none" xmlns="http://www.w3.org/2000/svg"><path d="M3.152 25.005L0 64.405h18.503l-4.203-39.4H3.152zm.752-9.389l-.45 5.634H13.9l-.601-5.634H3.904zm54.955 11.267L48.8 39.042V26.883h-5.138l-10.6 12.744V26.883h-5.144l-8.535 10.361 1.298 12.173h5.763v3.756h-5.362l1.202 11.267H64V26.883h-5.14zM37.71 53.173h-7.512v-3.756h7.512v3.756zm11.267 0h-7.512v-3.756h7.512v3.756zm11.267 0h-7.512v-3.756h7.512v3.756z" fill="#DE6518"/><path d="M16.674 11.86l1.264 11.853a10.043 10.043 0 005.33-2.123 11.307 11.307 0 005.678 1.537 11.27 11.27 0 008.16-3.5c1.35.656 2.83.997 4.359.997 2.2 0 4.337-.734 6.07-2.052a9.029 9.029 0 004.884 1.426c5.005 0 9.076-4.072 9.076-9.077 0-5.004-4.072-9.076-9.076-9.076a9.076 9.076 0 00-4.435 1.16 9.98 9.98 0 00-6.52-2.412c-2.195 0-4.324.729-6.053 2.04a11.198 11.198 0 00-6.465-2.04 11.24 11.24 0 00-8.4 3.76 10.016 10.016 0 00-3.493-.63c-4.88 0-8.955 3.51-9.836 8.137h9.457z" fill="#DE6518"/></svg>
